packages/icons/svg/24/Logout.svg

<svg width="24" height="24" viewBox="0 0 24 24" fill="none" xmlns="http://www.w3.org/2000/svg">
<path fill-rule="evenodd" clip-rule="evenodd" d="M1.99998 3.99997C1.99998 3.44769 2.4477 2.99998 2.99998 2.99998H14.9999C15.5522 2.99998 15.9999 3.44769 15.9999 3.99997V6.99995C15.9999 7.55223 15.5522 7.99994 14.9999 7.99994C14.4476 7.99994 13.9999 7.55223 13.9999 6.99995V4.99996H7.23601L9.44714 6.10553C9.78592 6.27492 9.99992 6.62118 9.99992 6.99995V16.9999H13.9999V14.9999C13.9999 14.4476 14.4476 13.9999 14.9999 13.9999C15.5522 13.9999 15.9999 14.4476 15.9999 14.9999V17.9999C15.9999 18.5521 15.5522 18.9999 14.9999 18.9999H9.99992V20.9998C9.99992 21.3464 9.82047 21.6683 9.52566 21.8505C9.23084 22.0327 8.86271 22.0493 8.55272 21.8943L2.55277 18.8943C2.21399 18.7249 1.99998 18.3786 1.99998 17.9999V3.99997ZM3.99997 5.61799V17.3818L7.99994 19.3818V7.61798L3.99997 5.61799ZM17.2928 7.29284C17.6833 6.90232 18.3164 6.90232 18.707 7.29284L21.7069 10.2928C22.0975 10.6833 22.0975 11.3165 21.7069 11.707L18.707 14.707C18.3164 15.0975 17.6833 15.0975 17.2928 14.707C16.9022 14.3165 16.9022 13.6833 17.2928 13.2928L18.5856 11.9999H12.9999C12.4476 11.9999 11.9999 11.5522 11.9999 10.9999C11.9999 10.4476 12.4476 9.99992 12.9999 9.99992H18.5856L17.2928 8.70704C16.9022 8.31652 16.9022 7.68336 17.2928 7.29284Z" fill="#858585"/>
</svg>

<svg width="24" height="24" fill="none" xmlns="http://www.w3.org/2000/svg" viewBox="0 0 24 24"><path fill-rule="evenodd" clip-rule="evenodd" d="M2 4a1 1 0 011-1h12a1 1 0 011 1v3a1 1 0 11-2 0V5H7.236l2.211 1.106A1 1 0 0110 7v10h4v-2a1 1 0 112 0v3a1 1 0 01-1 1h-5v2a1 1 0 01-1.447.894l-6-3A1 1 0 012 18V4zm2 1.618v11.764l4 2V7.618l-4-2zm13.293 1.675a1 1 0 011.414 0l3 3a1 1 0 010 1.414l-3 3a1 1 0 01-1.414-1.414L18.586 12H13a1 1 0 110-2h5.586l-1.293-1.293a1 1 0 010-1.414z" fill="currentColor"></path></svg>
